!!!OTL: "Die Schoepfung" ALS GOTT DIE WELT ERSCHAFFEN
!!!ARE: Europa, Mitteleuropa, Deutschland, Franken
!!!SCT: Z1340
!!!YEM: Copyright 1995, estate of Helmut Schaffrath.
**kern
*ICvox
*Ivox
*M6/8
*k[b-]
*F:
{8c
=1
4f
8a
4cc
8cc
=2
4.cc
4b-}
{8b-
=3
8.a
16b-
8a
8g
8a
8g
=4
[4.f
4f]}
{8c
=5
4f
8a
4cc
8cc
=6
4.cc
4b-}
{8b-
=7
8.a
16b-
8a
4g
8g
=8
[4.f
4f]}
{8f
=9
4cc
8cc
8cc
8a
8f
=10
8b-
8cc
8dd
4cc}
{8f
=11
4f
8a
8cc
8b-
8a
=12
4g
4.r}
{8c
=13
4f
8a
4cc
8cc
=14
4.cc
4b-}
{8b-
=15
4a
8a
4g
8g
=16
[4.f
4f]}
==
!!!AGN: Zech -, Schalks - Lied
!!!ONB: ESAC (Essen Associative Code) Database: ZUCCAL
!!!AMT: compound duple
!!!AIN: vox
!!!EED: Helmut Schaffrath
!!!EEV: 1.0
*-
